X: 255
T: Fa her
%%abc-version 2.0
%%abcx-abcm2ps-target-version 5.9.1 (29 Sep 2008)
%%abc-creator hum2abc beta
%%abcx-conversion-date 2013/10/02 07:52:29
%%abc-edited-by Helmut Schaffrath
%%humdrum-veritas 3853290382
%%humdrum-veritas-data 2872876387
%%continueall 1
%%barnumbers 0
L: 1/16
M: 2/4
K: G
g g2 e d B2 d [I:setbarnb 1]| 
g g2 e d d2 B | 
d d2 g e d2 B | 
A A2 GA4 | 
d d2 B e e2 d | 
e B2 A G G2 E | 
d d2 B d A2 G | 
D8 |]  



